libs/ui/packages/crypto-icons/src/svg/QASH.svg

<svg width="24" height="24" viewBox="0 0 24 24" fill="none">
<path d="M12 3.75C7.44375 3.75 3.75 7.44375 3.75 12C3.75 16.5562 7.44375 20.25 12 20.25C16.5562 20.25 20.25 16.5562 20.25 12C20.25 7.44375 16.5562 3.75 12 3.75ZM19.83 11.6625L19.1625 11.6693L19.1595 11.3895L19.8278 11.3835L19.8307 11.6625H19.83ZM19.659 10.2203L18.9967 10.3125L18.9585 10.035L19.62 9.9435L19.659 10.221V10.2203ZM19.089 8.46375L19.2045 8.71875L18.5963 8.99475L18.4808 8.7405L19.0883 8.46375H19.089ZM18.255 7.1925L18.4395 7.4025L17.937 7.8435L17.7533 7.6335L18.255 7.1925ZM17.2762 6.14775L17.4877 6.33075L17.052 6.83625L16.8397 6.654L17.2762 6.14775ZM16.11 5.2035L16.344 5.35575L15.9802 5.916L15.7463 5.7645L16.11 5.2035ZM14.7825 4.54875L15.0532 4.62L14.8837 5.26575L14.613 5.1945L14.7833 4.5495L14.7825 4.54875ZM13.3237 4.19025L13.602 4.21275L13.5465 4.87875L13.2682 4.8555L13.3237 4.19025ZM11.8133 4.014H12.0922V4.68225H11.8133V4.014ZM10.5728 4.19025L10.6282 4.8555L10.3492 4.8795L10.2938 4.2135L10.5728 4.19025ZM9.11325 4.54875L9.28275 5.1945L9.01275 5.26575L8.8425 4.62075L9.1125 4.54875H9.11325ZM7.7865 5.2035L8.15025 5.7645L7.9155 5.916L7.55175 5.35575L7.7865 5.2035ZM6.62025 6.1485L7.056 6.654L6.8445 6.83625L6.40875 6.33075L6.62025 6.14775V6.1485ZM5.64225 7.191L6.14475 7.632L5.9595 7.842L5.45775 7.40175L5.64225 7.19175V7.191ZM4.809 8.463L5.4165 8.73975L5.30175 8.99475L4.6935 8.71725L4.809 8.463ZM4.27725 9.94275L4.9395 10.0342L4.9005 10.3117L4.239 10.2195L4.27725 9.942V9.94275ZM4.07025 11.3828L4.73775 11.3888L4.7355 11.6685L4.068 11.6617L4.07025 11.3828ZM4.13175 12.9517L4.79625 12.8843L4.824 13.1617L4.1595 13.2292L4.13175 12.9517ZM4.434 14.3722L5.085 14.2208L5.14875 14.493L4.49775 14.6445L4.434 14.3722ZM5.16225 16.0695L5.02425 15.8265L5.604 15.495L5.74275 15.738L5.16225 16.0695ZM6.10875 17.2598L5.9055 17.0677L6.36525 16.5825L6.56775 16.7745L6.10875 17.2598ZM7.1775 18.21L6.95025 18.048L7.338 17.5035L7.56525 17.6663L7.1775 18.21ZM8.4255 19.0433L8.178 18.9135L8.4885 18.3225L8.736 18.4523L8.4255 19.0433ZM9.80625 19.5743L9.53025 19.5278L9.6405 18.8693L9.9165 18.9158L9.80625 19.5743ZM11.013 19.8007L11.0078 19.1325L11.2875 19.1295L11.2928 19.7977L11.013 19.8007ZM5.055 12C5.055 8.1705 8.1705 5.055 12 5.055C15.8295 5.055 18.945 8.1705 18.945 12C18.945 15.8295 15.8295 18.945 12 18.945C8.1705 18.945 5.055 15.8295 5.055 12ZM12.5445 19.8608L12.5355 19.8615L12.4747 19.197L12.753 19.1715L12.762 19.17L12.8228 19.8353L12.5445 19.8608ZM14.0333 19.5472L13.917 18.8895L14.1923 18.8407L14.3085 19.4993L14.0333 19.5472ZM15.4537 19.0568L15.225 18.429L15.4875 18.3337L15.7162 18.9615L15.4537 19.0568ZM16.7145 18.2843L16.302 17.7593L16.521 17.5853L16.9342 18.1102L16.7145 18.2835V18.2843ZM17.79 17.2365L17.31 16.773L17.5035 16.5712L17.9835 17.0363L17.79 17.2365ZM18.669 16.1077L18.129 15.714L18.294 15.4882L18.834 15.8812L18.669 16.1077ZM19.383 14.7653L18.7515 14.5448L18.8438 14.2808L19.4745 14.5012L19.383 14.7645V14.7653ZM19.7767 13.2428L19.1093 13.2128L19.122 12.933L19.7895 12.9637L19.7767 13.2428ZM14.652 15.549H14.6512C14.763 15.669 14.766 15.852 14.6558 15.9615C14.5455 16.0702 14.3633 16.065 14.244 15.951V15.9517L14.0355 15.7418L13.5615 15.261C13.2539 15.4077 12.9149 15.4765 12.5745 15.4613H11.271C10.0905 15.5048 9 14.9152 9.0885 12.9982C9.0915 12.918 9.08325 11.886 9.08325 11.8043L9.0855 11.0302C9.08325 9.11775 9.5505 8.25075 10.839 7.944C10.9852 7.90875 11.7825 7.8915 11.9347 7.8915H12.003C12.156 7.8915 12.8595 7.90875 13.0057 7.944C14.2942 8.25075 14.7615 9.11775 14.7593 11.0302L14.7615 11.805C14.7615 11.8868 14.7533 12.918 14.757 12.999C14.805 14.034 14.508 14.484 14.0392 14.9295L14.4443 15.3383L14.652 15.549ZM12.6578 14.853C12.807 14.853 12.9547 14.832 13.0972 14.79L12.8302 14.52L12.6217 14.3085C12.5093 14.1885 12.507 14.0063 12.6173 13.8975C12.7275 13.788 12.9097 13.7933 13.029 13.9065L13.2367 14.1165L13.611 14.496C13.6302 14.4785 13.6488 14.4602 13.6665 14.4412C14.016 14.0752 14.1825 13.7692 14.1488 13.0267C14.1465 12.9742 14.1458 12.9735 14.151 12.042L14.1525 11.8043L14.1517 11.2808C14.151 10.9613 14.1503 11.0738 14.1503 11.0295C14.151 10.182 14.055 9.4455 13.8488 9.11325C13.7265 8.91525 13.515 8.69325 12.8752 8.53875C12.5853 8.51496 12.2946 8.5022 12.0037 8.5005H11.9347C11.742 8.5005 11.097 8.52 10.971 8.53875C10.3305 8.69325 10.119 8.91525 9.99675 9.11325C9.7905 9.4455 9.6945 10.182 9.696 11.0295C9.696 11.0745 9.69525 10.9613 9.6945 11.2808C9.69429 11.5345 9.69429 11.7882 9.6945 12.042C9.69975 12.9735 9.69975 12.975 9.69675 13.0267C9.663 13.7692 9.83025 14.0752 10.1797 14.4412C10.5045 14.7817 10.9072 14.8538 11.1877 14.8538L11.2485 14.8522L11.2597 14.8515H12.597C12.6172 14.853 12.6375 14.853 12.6578 14.853Z" fill="#1347E8"/>
</svg>

<svg width="24" height="24" viewBox="0 0 24 24" fill="none"><path fill="#1347e8" d="M12 3.75a8.25 8.25 0 1 0 0 16.5 8.25 8.25 0 0 0 0-16.5m7.83 7.913-.667.006-.003-.28.668-.005zm-.171-1.443-.662.092-.038-.277.661-.091zm-.57-1.756.116.255-.609.276-.115-.254zm-.834-1.272.184.21-.502.441-.184-.21zm-.979-1.044.212.183-.436.505-.212-.182zm-1.166-.944.234.152-.364.56-.234-.152zm-1.327-.655.27.071-.17.646-.27-.072zm-1.46-.359.279.023-.056.666-.278-.023zm-1.51-.176h.28v.668h-.28zm-1.24.176.055.665-.279.024-.055-.665zm-1.46.359.17.645-.27.072-.17-.645zm-1.326.654.363.561-.235.152-.363-.56zM6.62 6.15l.436.505-.212.182-.435-.505zm-.978 1.04.503.441-.185.21-.502-.44zM4.81 8.463l.607.277-.114.255-.608-.278zm-.532 1.48.662.091-.038.278-.662-.092zm-.207 1.44.668.006-.003.28-.667-.007zm.062 1.569.664-.068.028.278-.664.067zm.302 1.42.651-.151.064.272-.651.152zm.728 1.698-.138-.244.58-.331.139.243zm.947 1.19-.203-.192.46-.486.202.192zm1.069.95-.228-.162.388-.544.227.162zm1.247.833-.247-.13.31-.59.248.13zm1.381.531-.276-.046.11-.659.276.047zm1.207.227-.005-.668.28-.003.005.668zM5.055 12A6.953 6.953 0 0 1 12 5.055 6.953 6.953 0 0 1 18.945 12 6.953 6.953 0 0 1 12 18.945 6.953 6.953 0 0 1 5.055 12m7.49 7.86-.01.002-.06-.665.278-.025.009-.002.06.665zm1.488-.313-.116-.657.275-.05.117.66zm1.42-.49-.228-.628.263-.095.228.628zm1.262-.773-.413-.525.219-.174.413.525zm1.075-1.047-.48-.464.194-.202.48.465zm.879-1.13-.54-.393.165-.226.54.393zm.714-1.342-.631-.22.092-.264.63.22zm.394-1.522-.668-.03.013-.28.668.03zm-5.125 2.306c.111.12.114.303.004.412-.11.11-.293.104-.412-.01l-.208-.21-.474-.48a2.1 2.1 0 0 1-.987.2H11.27c-1.18.044-2.271-.546-2.183-2.463.004-.08-.005-1.112-.005-1.194l.002-.774c-.002-1.912.465-2.78 1.754-3.086.146-.035.944-.053 1.096-.053h.068c.153 0 .857.018 1.003.053 1.288.307 1.755 1.174 1.753 3.086l.002.775c0 .082-.008 1.113-.004 1.194.048 1.035-.249 1.485-.718 1.93l.405.41zm-1.994-.696q.225 0 .44-.063l-.268-.27-.208-.211c-.113-.12-.115-.303-.005-.411.11-.11.293-.105.412.008l.208.21.374.38.055-.055c.35-.366.516-.672.483-1.414-.002-.053-.003-.053.002-.985l.002-.238-.001-.523c-.001-.32-.002-.207-.002-.252.001-.847-.095-1.584-.301-1.916-.123-.198-.334-.42-.974-.574q-.435-.036-.871-.038h-.07c-.192 0-.837.019-.963.038-.64.154-.852.376-.974.574-.207.332-.303 1.069-.301 1.917l-.002.25v.762c.006.931.006.933.003.985-.034.742.133 1.048.483 1.414.325.34.727.413 1.008.413l.06-.002h1.349z"/></svg>
